sites/Tartarya/images/main/logo-bg.svg

<svg width="129" height="65" viewBox="0 0 129 65" fill="none" xmlns="http://www.w3.org/2000/svg">
<path d="M10.2246 0.671875V22H5.96191V0.671875H10.2246ZM15.5273 0.671875V4.23145H0.761719V0.671875H15.5273ZM23.9795 4.48047L19.3945 22H14.8682L21.5332 0.671875H24.3604L23.9795 4.48047ZM27.5977 22L22.9834 4.48047L22.5586 0.671875H25.4297L32.1533 22H27.5977ZM27.7588 14.0459V17.6055H18.1348V14.0459H27.7588ZM34.2041 0.671875H41.0449C42.4707 0.671875 43.6865 0.916016 44.6924 1.4043C45.6982 1.89258 46.4697 2.61523 47.0068 3.57227C47.5439 4.5293 47.8125 5.71094 47.8125 7.11719C47.8125 8.26953 47.6562 9.25586 47.3438 10.0762C47.0312 10.8867 46.5869 11.5654 46.0107 12.1123C45.4346 12.6494 44.7461 13.0791 43.9453 13.4014L42.6416 14.1777H37.0898L37.0752 10.6182H40.9277C41.5137 10.6182 41.9971 10.4912 42.3779 10.2373C42.7686 9.97363 43.0566 9.60742 43.2422 9.13867C43.4375 8.66016 43.5352 8.10352 43.5352 7.46875C43.5352 6.79492 43.4473 6.21875 43.2715 5.74023C43.1055 5.25195 42.8369 4.88086 42.4658 4.62695C42.1045 4.36328 41.6309 4.23145 41.0449 4.23145H38.4961V22H34.2041V0.671875ZM43.8867 22L39.9756 12.4932L44.4727 12.4785L48.4717 21.7949V22H43.8867ZM58.5645 0.671875V22H54.3018V0.671875H58.5645ZM63.8672 0.671875V4.23145H49.1016V0.671875H63.8672ZM72.3193 4.48047L67.7344 22H63.208L69.873 0.671875H72.7002L72.3193 4.48047ZM75.9375 22L71.3232 4.48047L70.8984 0.671875H73.7695L80.4932 22H75.9375ZM76.0986 14.0459V17.6055H66.4746V14.0459H76.0986ZM82.5439 0.671875H89.3848C90.8105 0.671875 92.0264 0.916016 93.0322 1.4043C94.0381 1.89258 94.8096 2.61523 95.3467 3.57227C95.8838 4.5293 96.1523 5.71094 96.1523 7.11719C96.1523 8.26953 95.9961 9.25586 95.6836 10.0762C95.3711 10.8867 94.9268 11.5654 94.3506 12.1123C93.7744 12.6494 93.0859 13.0791 92.2852 13.4014L90.9814 14.1777H85.4297L85.415 10.6182H89.2676C89.8535 10.6182 90.3369 10.4912 90.7178 10.2373C91.1084 9.97363 91.3965 9.60742 91.582 9.13867C91.7773 8.66016 91.875 8.10352 91.875 7.46875C91.875 6.79492 91.7871 6.21875 91.6113 5.74023C91.4453 5.25195 91.1768 4.88086 90.8057 4.62695C90.4443 4.36328 89.9707 4.23145 89.3848 4.23145H86.8359V22H82.5439V0.671875ZM92.2266 22L88.3154 12.4932L92.8125 12.4785L96.8115 21.7949V22H92.2266ZM101.602 0.671875L104.854 10.2812L108.076 0.671875H112.749L107.007 14.251V22H102.686V14.251L96.9434 0.671875H101.602ZM120.278 4.48047L115.693 22H111.167L117.832 0.671875H120.659L120.278 4.48047ZM123.896 22L119.282 4.48047L118.857 0.671875H121.729L128.452 22H123.896ZM124.058 14.0459V17.6055H114.434V14.0459H124.058ZM10.9424 58.252L17.0859 25.6094H21.1465L22.3594 30.6719L15.7676 64H11.3643L10.9424 58.252ZM8.83301 25.6094L13.79 58.3311L12.9463 64H8.09473L1.21289 25.6094H8.83301ZM26.8154 58.1992L31.7461 25.6094H39.3398L32.5107 64H27.6328L26.8154 58.1992ZM23.4932 25.6094L29.6895 58.4365L29.1885 64H24.7852L18.2197 30.6191L19.459 25.6094H23.4932ZM56.3467 32.4648L48.0938 64H39.9463L51.9434 25.6094H57.0322L56.3467 32.4648ZM62.8594 64L54.5537 32.4648L53.7891 25.6094H58.957L71.0596 64H62.8594ZM63.1494 49.6826V56.0898H45.8262V49.6826H63.1494ZM74.751 25.6094H87.0645C89.6309 25.6094 91.8193 26.0488 93.6299 26.9277C95.4404 27.8066 96.8291 29.1074 97.7959 30.8301C98.7627 32.5527 99.2461 34.6797 99.2461 37.2109C99.2461 39.2852 98.9648 41.0605 98.4023 42.5371C97.8398 43.9961 97.04 45.2178 96.0029 46.2021C94.9658 47.1689 93.7266 47.9424 92.2852 48.5225L89.9385 49.9199H79.9453L79.9189 43.5127H86.8535C87.9082 43.5127 88.7783 43.2842 89.4639 42.8271C90.167 42.3525 90.6855 41.6934 91.0195 40.8496C91.3711 39.9883 91.5469 38.9863 91.5469 37.8438C91.5469 36.6309 91.3887 35.5938 91.0723 34.7324C90.7734 33.8535 90.29 33.1855 89.6221 32.7285C88.9717 32.2539 88.1191 32.0166 87.0645 32.0166H82.4766V64H74.751V25.6094ZM92.1797 64L85.1396 46.8877L93.2344 46.8613L100.433 63.6309V64H92.1797ZM120.867 53.9014C120.867 53.2158 120.806 52.5918 120.683 52.0293C120.56 51.4668 120.296 50.9482 119.892 50.4736C119.505 49.999 118.934 49.5244 118.178 49.0498C117.439 48.5752 116.473 48.083 115.277 47.5732C113.854 46.9756 112.474 46.3428 111.138 45.6748C109.802 44.9893 108.598 44.1982 107.525 43.3018C106.453 42.4053 105.601 41.3506 104.968 40.1377C104.353 38.9072 104.045 37.4658 104.045 35.8135C104.045 34.1963 104.335 32.7285 104.915 31.4102C105.513 30.0918 106.356 28.9668 107.446 28.0352C108.536 27.0859 109.811 26.3564 111.27 25.8467C112.746 25.3369 114.39 25.082 116.2 25.082C118.661 25.082 120.788 25.5918 122.581 26.6113C124.392 27.6309 125.789 29.0283 126.773 30.8037C127.775 32.5791 128.276 34.6182 128.276 36.9209H120.577C120.577 35.8311 120.419 34.873 120.103 34.0469C119.804 33.2031 119.32 32.5439 118.652 32.0693C117.984 31.5947 117.123 31.3574 116.068 31.3574C115.084 31.3574 114.267 31.5596 113.616 31.9639C112.983 32.3506 112.509 32.8867 112.192 33.5723C111.894 34.2402 111.744 34.9961 111.744 35.8398C111.744 36.4727 111.894 37.0439 112.192 37.5537C112.509 38.0459 112.939 38.4941 113.484 38.8984C114.029 39.2852 114.671 39.6631 115.409 40.0322C116.165 40.4014 116.991 40.7617 117.888 41.1133C119.628 41.7988 121.166 42.5547 122.502 43.3809C123.838 44.1895 124.954 45.1035 125.851 46.123C126.747 47.125 127.424 48.2588 127.881 49.5244C128.338 50.79 128.566 52.2314 128.566 53.8486C128.566 55.4482 128.285 56.9072 127.723 58.2256C127.178 59.5264 126.378 60.6514 125.323 61.6006C124.269 62.5322 122.994 63.2529 121.5 63.7627C120.023 64.2725 118.371 64.5273 116.543 64.5273C114.768 64.5273 113.089 64.2812 111.507 63.7891C109.925 63.2793 108.527 62.5146 107.314 61.4951C106.119 60.458 105.179 59.1484 104.493 57.5664C103.808 55.9668 103.465 54.0771 103.465 51.8975H111.19C111.19 53.0576 111.305 54.0508 111.533 54.877C111.762 55.6855 112.113 56.3359 112.588 56.8281C113.062 57.3027 113.643 57.6631 114.328 57.9092C115.031 58.1377 115.831 58.252 116.728 58.252C117.747 58.252 118.556 58.0586 119.153 57.6719C119.769 57.2852 120.208 56.7666 120.472 56.1162C120.735 55.4658 120.867 54.7275 120.867 53.9014Z" fill="#5C5C5C"/>
</svg>

<svg width="129" height="65" fill="none" xmlns="http://www.w3.org/2000/svg"><path d="M10.225.672V22H5.962V.672h4.263Zm5.302 0v3.56H.762V.671h14.765ZM23.98 4.48 19.395 22h-4.527L21.533.672h2.827l-.38 3.808ZM27.598 22 22.983 4.48 22.56.672h2.87L32.154 22h-4.555Zm.16-7.954v3.56h-9.623v-3.56h9.624ZM34.205.672h6.84c1.427 0 2.643.244 3.648.732a5.184 5.184 0 0 1 2.315 2.168c.537.957.806 2.139.806 3.545 0 1.153-.157 2.139-.47 2.96-.312.81-.756 1.488-1.332 2.035a6.613 6.613 0 0 1-2.066 1.29l-1.303.776H37.09l-.015-3.56h3.853c.586 0 1.07-.127 1.45-.38.39-.264.679-.63.864-1.1.196-.478.293-1.034.293-1.67 0-.673-.088-1.25-.263-1.728-.166-.488-.435-.86-.806-1.113-.361-.264-.835-.396-1.421-.396h-2.549V22h-4.292V.672ZM43.887 22l-3.911-9.507 4.497-.014 3.999 9.316V22h-4.585ZM58.565.672V22h-4.263V.672h4.263Zm5.302 0v3.56H49.102V.671h14.765ZM72.32 4.48 67.734 22h-4.526L69.873.672H72.7l-.38 3.808ZM75.937 22 71.323 4.48 70.898.672h2.871L80.493 22h-4.555Zm.162-7.954v3.56h-9.624v-3.56h9.624ZM82.544.672h6.84c1.427 0 2.642.244 3.648.732a5.183 5.183 0 0 1 2.315 2.168c.537.957.805 2.139.805 3.545 0 1.153-.156 2.139-.468 2.96-.313.81-.757 1.488-1.333 2.035a6.615 6.615 0 0 1-2.066 1.29l-1.304.776H85.43l-.015-3.56h3.853c.585 0 1.069-.127 1.45-.38.39-.264.678-.63.864-1.1.195-.478.293-1.034.293-1.67 0-.673-.088-1.25-.264-1.728-.166-.488-.434-.86-.805-1.113-.362-.264-.835-.396-1.421-.396h-2.55V22h-4.291V.672ZM92.227 22l-3.912-9.507 4.498-.014 3.998 9.316V22h-4.584ZM101.602.672l3.252 9.61 3.222-9.61h4.673l-5.742 13.579V22h-4.321v-7.749L96.943.671h4.659Zm18.676 3.808L115.693 22h-4.526L117.832.672h2.827l-.381 3.808ZM123.896 22l-4.614-17.52-.425-3.808h2.872L128.452 22h-4.556Zm.162-7.954v3.56h-9.624v-3.56h9.624ZM10.942 58.252l6.144-32.643h4.06l1.213 5.063L15.768 64h-4.404l-.422-5.748ZM8.833 25.609l4.957 32.722L12.946 64H8.095L1.213 25.61h7.62ZM26.815 58.2l4.931-32.59h7.594L32.51 64h-4.877l-.818-5.8Zm-3.322-32.59 6.197 32.828L29.188 64h-4.403L18.22 30.62l1.239-5.01h4.034Zm32.854 6.856L48.094 64h-8.148l11.997-38.39h5.09l-.686 6.855ZM62.859 64l-8.305-31.535-.765-6.856h5.168L71.06 64h-8.2Zm.29-14.317v6.407H45.826v-6.407H63.15Zm11.602-24.074h12.313c2.567 0 4.755.44 6.566 1.319 1.81.879 3.2 2.18 4.166 3.902.967 1.723 1.45 3.85 1.45 6.38 0 2.075-.281 3.85-.844 5.327-.562 1.46-1.362 2.68-2.4 3.665-1.036.967-2.275 1.74-3.717 2.32L89.94 49.92h-9.994l-.026-6.407h6.934c1.055 0 1.925-.229 2.61-.686.704-.474 1.223-1.134 1.556-1.977.352-.862.528-1.864.528-3.006 0-1.213-.158-2.25-.475-3.112-.299-.879-.782-1.547-1.45-2.004-.65-.474-1.503-.711-2.558-.711h-4.587V64H74.75V25.61ZM92.18 64l-7.04-17.112 8.094-.027 7.199 16.77V64H92.18Zm28.687-10.099c0-.685-.061-1.31-.184-1.872a3.55 3.55 0 0 0-.791-1.555c-.387-.475-.958-.95-1.714-1.424-.739-.475-1.705-.967-2.901-1.477a68.952 68.952 0 0 1-4.139-1.898 19.477 19.477 0 0 1-3.613-2.373 10.311 10.311 0 0 1-2.557-3.164c-.615-1.23-.923-2.672-.923-4.325 0-1.617.29-3.085.87-4.403a9.598 9.598 0 0 1 2.531-3.375c1.09-.95 2.365-1.679 3.824-2.188 1.476-.51 3.12-.765 4.93-.765 2.461 0 4.588.51 6.381 1.53 1.811 1.019 3.208 2.416 4.192 4.192 1.002 1.775 1.503 3.814 1.503 6.117h-7.699c0-1.09-.158-2.048-.474-2.874-.299-.844-.783-1.503-1.451-1.978-.668-.474-1.529-.712-2.584-.712-.984 0-1.801.203-2.452.607a3.62 3.62 0 0 0-1.424 1.608c-.298.668-.448 1.424-.448 2.268 0 .633.15 1.204.448 1.714.317.492.747.94 1.292 1.344.545.387 1.187.765 1.925 1.134.756.37 1.582.73 2.479 1.081 1.74.686 3.278 1.442 4.614 2.268 1.336.809 2.452 1.722 3.349 2.742a10.31 10.31 0 0 1 2.03 3.401c.457 1.266.685 2.707.685 4.325 0 1.6-.281 3.058-.843 4.377a9.346 9.346 0 0 1-2.4 3.375c-1.054.931-2.329 1.652-3.823 2.162-1.477.51-3.129.764-4.957.764-1.775 0-3.454-.246-5.036-.738-1.582-.51-2.98-1.274-4.193-2.294-1.195-1.037-2.135-2.347-2.821-3.929-.685-1.6-1.028-3.489-1.028-5.669h7.725c0 1.16.115 2.154.343 2.98.229.808.58 1.459 1.055 1.951a4.635 4.635 0 0 0 1.74 1.081c.703.229 1.503.343 2.4.343 1.019 0 1.828-.193 2.425-.58a3.24 3.24 0 0 0 1.319-1.556c.263-.65.395-1.389.395-2.215Z" fill="#5C5C5C"/></svg>
